X:1
T:HARVEST
M:2/4
Q:1/4=120
K:Ab
e6e2|f2e2d2f2|e4A4|e6e2|f2e2d2f2|e4A4|e4e2e2|
d4c4|c4B4|A4e4|e2e2d2d2|c2c2B4|A4c4|c4c2e2|
B4A4|B4c4|c4c2e2|B4A4|B4c4|c4c2e2|B4A4|B4c4|
c4c2e2|B4A4|B4c4|c4c2e2|B4A4|B4c4|c4c2c2|
c2c2e4|-e4A4|-A3||
